dist/images/giveMoneyBag.svg

<svg width="50" height="50" viewBox="0 0 50 50" fill="none" xmlns="http://www.w3.org/2000/svg">
<circle cx="25" cy="25" r="25" fill="#F6F3EC"/>
<path d="M24.56 20.7583C24.2188 20.8102 23.8992 20.9356 23.6321 21.1225C23.475 21.2272 23.3471 21.3599 23.2576 21.5112C23.1681 21.6624 23.1192 21.8285 23.1144 21.9976C23.1133 22.1468 23.1562 22.2939 23.239 22.4257C23.3218 22.5575 23.442 22.6698 23.5888 22.7526C23.8844 22.93 24.2125 23.065 24.56 23.1522L24.56 20.7583Z" fill="#F37021"/>
<path d="M26.8856 25.5027C26.8867 25.3535 26.8438 25.2064 26.761 25.0746C26.6782 24.9428 26.558 24.8305 26.4112 24.7477C26.1156 24.5703 25.7875 24.4353 25.44 24.3481V26.742C25.7812 26.6901 26.1008 26.5647 26.3679 26.3778C26.525 26.2731 26.6529 26.1404 26.7424 25.9891C26.8319 25.8379 26.8808 25.6718 26.8856 25.5027Z" fill="#F37021"/>
<path d="M35.6316 30.5576C35.3769 30.4241 35.0872 30.3457 34.7881 30.3291C34.4891 30.3125 34.1898 30.3584 33.9166 30.4627L29.616 32.1104C29.7393 32.2855 29.82 32.4796 29.8533 32.6815C29.8986 32.9438 29.8615 33.2115 29.7457 33.4578C29.6298 33.7042 29.4393 33.9204 29.1933 34.0847C28.8736 34.3002 28.477 34.4178 28.0681 34.4182C27.971 34.4183 27.874 34.4116 27.7781 34.3984L21.7301 33.5651C21.6245 33.5504 21.5301 33.5009 21.4677 33.4274C21.4053 33.354 21.3799 33.2626 21.3971 33.1733C21.4143 33.084 21.4727 33.0041 21.5595 32.9512C21.6463 32.8983 21.7543 32.8767 21.86 32.8911L27.8567 33.7173C28.1613 33.7496 28.4691 33.6831 28.718 33.5311C28.8465 33.4374 28.9446 33.3174 29.0028 33.1827C29.0611 33.0479 29.0776 32.9027 29.0508 32.761C29.024 32.6193 28.9548 32.4858 28.8498 32.3731C28.7447 32.2604 28.6073 32.1722 28.4506 32.1171L23.5517 30.3926C23.4262 30.3484 23.2916 30.3257 23.1557 30.3257H18.3119C18.0852 30.3257 17.8648 30.3889 17.685 30.5055L16.6513 31.1754V31.0333C16.6513 30.9007 16.589 30.7736 16.4782 30.6799C16.3673 30.5862 16.2169 30.5335 16.0602 30.5335H14.5911C14.5135 30.5335 14.4366 30.5464 14.3649 30.5716C14.2932 30.5967 14.228 30.6335 14.1731 30.6799C14.1182 30.7263 14.0747 30.7814 14.045 30.842C14.0153 30.9027 14 30.9677 14 31.0333V35.9418C14 36.0074 14.0153 36.0724 14.045 36.1331C14.0747 36.1937 14.1182 36.2488 14.1731 36.2952C14.228 36.3416 14.2932 36.3784 14.3649 36.4035C14.4366 36.4287 14.5135 36.4416 14.5911 36.4416H16.0602C16.2169 36.4416 16.3673 36.3889 16.4782 36.2952C16.589 36.2015 16.6513 36.0743 16.6513 35.9418V35.662L23.4714 36.9711C23.9193 37.057 24.3832 37.065 24.8349 36.9945C25.2865 36.924 25.7165 36.7765 26.0985 36.5611L35.6355 31.6595C35.7472 31.6017 35.8394 31.5206 35.9032 31.4239C35.9671 31.3273 36.0004 31.2184 36 31.1077C35.9996 30.9969 35.9655 30.8882 35.901 30.7919C35.8364 30.6955 35.7437 30.6149 35.6316 30.5576Z" fill="#F37021"/>
<path d="M28.3176 16.7116C29.2162 15.8862 30.4863 14.4565 29.5101 13.1836C29.4639 13.1234 29.394 13.0788 29.3127 13.0578C29.2314 13.0368 29.144 13.0407 29.0658 13.0687C27.9329 13.4792 27.2326 13.7253 26.0997 13.3148L25.3953 13.0244C25.3508 13.0083 25.3029 13 25.2545 13C25.2061 13 25.1582 13.0083 25.1137 13.0244L24.4093 13.3148C23.2764 13.7253 22.5761 13.4792 21.4432 13.0687C21.365 13.0407 21.2776 13.0368 21.1963 13.0578C21.1151 13.0788 21.0451 13.1234 20.9989 13.1836C20.0227 14.4565 21.2929 15.8862 22.1914 16.7116H28.3176Z" fill="#F37021"/>
<path d="M25 29.9832C33.3811 29.9832 33.4971 27.2951 32.5985 23.5946C31.9165 20.7858 30.2745 17.9556 27.9815 17.5142H22.0185C19.7255 17.9556 18.0835 20.7858 17.4015 23.5946C16.5029 27.2951 16.6189 29.9832 25 29.9832ZM22.9012 23.5088C22.6166 23.3366 22.3847 23.1095 22.225 22.8464C22.0653 22.5833 21.9823 22.2918 21.983 21.9962C21.9865 21.6884 22.0706 21.385 22.2293 21.1079C22.388 20.8307 22.6173 20.5867 22.9009 20.3932C23.3735 20.0616 23.9498 19.8529 24.56 19.7923V19.2907C24.56 19.1922 24.6064 19.0977 24.6889 19.028C24.7714 18.9584 24.8833 18.9192 25 18.9192C25.1167 18.9192 25.2286 18.9584 25.3111 19.028C25.3936 19.0977 25.44 19.1922 25.44 19.2907V19.7755C26.2194 19.8618 26.9767 20.0559 27.6814 20.3501C27.7495 20.3754 27.811 20.4119 27.8624 20.4574C27.9138 20.5028 27.9541 20.5564 27.9809 20.6151C28.0077 20.6737 28.0205 20.7363 28.0187 20.7991C28.0168 20.862 28.0002 20.9239 27.9699 20.9813C27.9397 21.0388 27.8963 21.0906 27.8422 21.1338C27.7882 21.177 27.7245 21.2108 27.655 21.2333C27.5854 21.2557 27.5113 21.2663 27.4369 21.2645C27.3625 21.2627 27.2892 21.2485 27.2213 21.2227C26.6579 20.9901 26.0581 20.8268 25.44 20.7375V23.3501C26.0365 23.4706 26.5998 23.6874 27.0988 23.9885C27.3834 24.1607 27.6153 24.3878 27.775 24.6509C27.9347 24.914 28.0177 25.2055 28.017 25.5011C28.0135 25.8089 27.9294 26.1123 27.7707 26.3894C27.612 26.6666 27.3827 26.9106 27.0991 27.1042C26.6264 27.4355 26.0501 27.6439 25.44 27.7044V28.2066C25.44 28.3051 25.3936 28.3996 25.3111 28.4693C25.2286 28.5389 25.1167 28.5781 25 28.5781C24.8833 28.5781 24.7714 28.5389 24.6889 28.4693C24.6064 28.3996 24.56 28.3051 24.56 28.2066V27.7217C23.7806 27.6355 23.0233 27.4414 22.3186 27.1473C22.2508 27.1218 22.1895 27.0852 22.1384 27.0397C22.0872 26.9942 22.0472 26.9407 22.0206 26.8821C21.994 26.8236 21.9813 26.7611 21.9832 26.6984C21.9851 26.6357 22.0017 26.574 22.0319 26.5167C22.0621 26.4594 22.1054 26.4077 22.1593 26.3645C22.2132 26.3213 22.2766 26.2875 22.3459 26.265C22.4153 26.2426 22.4892 26.2318 22.5635 26.2335C22.6377 26.2351 22.7109 26.2491 22.7787 26.2746C23.3421 26.5072 23.9419 26.6705 24.56 26.7598V24.1472C23.9635 24.0267 23.4002 23.8099 22.9012 23.5088Z" fill="#F37021"/>
</svg>

<svg width="50" height="50" fill="none" xmlns="http://www.w3.org/2000/svg"><circle cx="25" cy="25" r="25" fill="#F6F3EC"/><path d="M24.56 20.758c-.341.052-.66.178-.928.364a1.214 1.214 0 0 0-.374.39.999.999 0 0 0-.144.486.792.792 0 0 0 .125.428.976.976 0 0 0 .35.327c.295.177.623.312.971.4v-2.395Zm2.326 4.745a.792.792 0 0 0-.125-.428.976.976 0 0 0-.35-.327 3.583 3.583 0 0 0-.971-.4v2.394c.341-.052.66-.177.928-.364.157-.105.285-.238.374-.389.09-.151.139-.317.144-.486Zm8.746 5.055a2.123 2.123 0 0 0-1.715-.095l-4.301 1.647c.123.175.204.37.237.572.046.262.008.53-.107.776a1.56 1.56 0 0 1-.553.627c-.32.215-.716.333-1.125.333a2.01 2.01 0 0 1-.29-.02l-6.048-.833a.419.419 0 0 1-.262-.138.301.301 0 0 1-.07-.254.34.34 0 0 1 .162-.222.462.462 0 0 1 .3-.06l5.997.826a1.38 1.38 0 0 0 .861-.186.854.854 0 0 0 .285-.348.72.72 0 0 0 .048-.422.784.784 0 0 0-.201-.388.996.996 0 0 0-.4-.256l-4.898-1.724a1.195 1.195 0 0 0-.396-.067h-4.844c-.227 0-.447.063-.627.18l-1.034.67v-.143a.464.464 0 0 0-.173-.353.65.65 0 0 0-.418-.146h-1.469a.684.684 0 0 0-.226.038.608.608 0 0 0-.192.108.503.503 0 0 0-.128.162.434.434 0 0 0-.045.191v4.909c0 .065.015.13.045.191.03.06.073.116.128.162.055.047.12.083.192.108a.684.684 0 0 0 .226.039h1.47a.65.65 0 0 0 .417-.147.464.464 0 0 0 .173-.353v-.28l6.82 1.31a4.03 4.03 0 0 0 1.364.023 3.769 3.769 0 0 0 1.264-.434l9.537-4.901a.708.708 0 0 0 .267-.236.568.568 0 0 0 .097-.316.57.57 0 0 0-.099-.316.711.711 0 0 0-.27-.234Zm-7.314-13.846c.898-.826 2.168-2.255 1.192-3.528a.361.361 0 0 0-.197-.126.424.424 0 0 0-.247.01c-1.133.411-1.833.657-2.966.247l-.705-.29a.415.415 0 0 0-.281 0l-.705.29c-1.133.41-1.833.164-2.966-.246a.424.424 0 0 0-.247-.011.362.362 0 0 0-.197.126c-.976 1.273.294 2.702 1.192 3.528h6.127Z" fill="#F37021"/><path d="M25 29.983c8.381 0 8.497-2.688 7.599-6.388-.682-2.81-2.324-5.64-4.617-6.08h-5.963c-2.293.44-3.935 3.27-4.617 6.08-.9 3.7-.783 6.388 7.598 6.388Zm-2.099-6.474a1.988 1.988 0 0 1-.676-.663 1.627 1.627 0 0 1-.242-.85c.003-.308.088-.611.246-.888.159-.277.388-.521.672-.715a3.496 3.496 0 0 1 1.659-.6v-.502c0-.099.046-.193.129-.263a.485.485 0 0 1 .311-.109c.117 0 .229.04.311.109.083.07.129.164.129.263v.485c.78.086 1.537.28 2.241.574.069.025.13.062.181.107a.474.474 0 0 1 .119.158.413.413 0 0 1-.011.366.485.485 0 0 1-.128.153.591.591 0 0 1-.187.1.661.661 0 0 1-.434-.011 7.472 7.472 0 0 0-1.781-.485v2.612a5.21 5.21 0 0 1 1.659.638c.284.173.516.4.676.663.16.263.243.555.242.85a1.825 1.825 0 0 1-.246.888 2.19 2.19 0 0 1-.672.715 3.498 3.498 0 0 1-1.659.6v.503a.345.345 0 0 1-.129.262.485.485 0 0 1-.311.11.485.485 0 0 1-.311-.11.345.345 0 0 1-.129-.262v-.485a8.155 8.155 0 0 1-2.241-.575.575.575 0 0 1-.18-.107.474.474 0 0 1-.118-.158.413.413 0 0 1 .01-.365.487.487 0 0 1 .128-.152.589.589 0 0 1 .187-.1.66.66 0 0 1 .433.01 7.472 7.472 0 0 0 1.781.485v-2.613a5.21 5.21 0 0 1-1.659-.638Z" fill="#F37021"/></svg>
